docs/img/example-imagestreams.svg

<?xml version="1.0" encoding="UTF-8" standalone="no"?>
<svg
   xmlns:dc="http://purl.org/dc/elements/1.1/"
   xmlns:cc="http://creativecommons.org/ns#"
   xmlns:rdf="http://www.w3.org/1999/02/22-rdf-syntax-ns#"
   xmlns:svg="http://www.w3.org/2000/svg"
   xmlns="http://www.w3.org/2000/svg"
   xmlns:sodipodi="http://sodipodi.sourceforge.net/DTD/sodipodi-0.dtd"
   xmlns:inkscape="http://www.inkscape.org/namespaces/inkscape"
   height="40"
   viewBox="0 0 60 40"
   width="60"
   version="1.1"
   id="svg36"
   sodipodi:docname="example-imagestreams.svg"
   inkscape:version="1.0.1 (3bc2e813f5, 2020-09-07)">
  <sodipodi:namedview
     pagecolor="#ffffff"
     bordercolor="#666666"
     borderopacity="1"
     objecttolerance="10"
     gridtolerance="10"
     guidetolerance="10"
     inkscape:pageopacity="0"
     inkscape:pageshadow="2"
     inkscape:window-width="1920"
     inkscape:window-height="1016"
     id="namedview86"
     showgrid="false"
     inkscape:zoom="19.85"
     inkscape:cx="30"
     inkscape:cy="20"
     inkscape:window-x="0"
     inkscape:window-y="0"
     inkscape:window-maximized="1"
     inkscape:current-layer="svg36" />
  <metadata
     id="metadata42">
    <rdf:RDF>
      <cc:Work
         rdf:about="">
        <dc:format>image/svg+xml</dc:format>
        <dc:type
           rdf:resource="http://purl.org/dc/dcmitype/StillImage" />
        <dc:title />
      </cc:Work>
    </rdf:RDF>
  </metadata>
  <defs
     id="defs40">
    <mask
       id="a-1"
       fill="#ffffff">
      <path
         d="M 0,0 H 313.30315 V 159.86486 H 0 Z"
         fill="#ffffff"
         fill-rule="evenodd"
         id="path2-9" />
    </mask>
    <clipPath
       clipPathUnits="userSpaceOnUse"
       id="clipPath3444">
      <path
         d="M 11.52,162 C 11.52,81.677 135.307,16.561 288,16.561 v 0 c 152.693,0 276.481,65.116 276.481,145.439 v 0 c 0,80.322 -123.788,145.439 -276.481,145.439 v 0 C 135.307,307.439 11.52,242.322 11.52,162"
         id="path3446" />
    </clipPath>
    <radialGradient
       cx="0"
       cy="0"
       fx="0"
       fy="0"
       gradientTransform="matrix(363.05789,0,0,-363.05789,177.52002,256.30713)"
       gradientUnits="userSpaceOnUse"
       id="radialGradient3452"
       r="1"
       spreadMethod="pad">
      <stop
         id="stop3454"
         offset="0"
         style="stop-opacity:1;stop-color:#aeb2d5" />
      <stop
         id="stop3456"
         offset="0.3"
         style="stop-opacity:1;stop-color:#aeb2d5" />
      <stop
         id="stop3458"
         offset="0.75"
         style="stop-opacity:1;stop-color:#484c89" />
      <stop
         id="stop3460"
         offset="1"
         style="stop-opacity:1;stop-color:#484c89" />
    </radialGradient>
    <clipPath
       clipPathUnits="userSpaceOnUse"
       id="clipPath3468">
      <path
         d="M 0,324 H 576 V 0 H 0 Z"
         id="path3470" />
    </clipPath>
    <clipPath
       clipPathUnits="userSpaceOnUse"
       id="clipPath3480">
      <path
         d="M 0,324 H 576 V 0 H 0 Z"
         id="path3482" />
    </clipPath>
  </defs>
  <mask
     id="a"
     fill="#ffffff">
    <path
       d="M 0,0 H 313.30315 V 159.86486 H 0 Z"
       fill="#ffffff"
       fill-rule="evenodd"
       id="path2" />
  </mask>
  <mask
     id="b"
     fill="#ffffff">
    <path
       d="M 0,0 H 313.30315 V 159.86486 H 0 Z"
       fill="#ffffff"
       fill-rule="evenodd"
       id="path5" />
  </mask>
  <g
     id="g1042"
     style="display:inline">
    <g
       id="g994"
       transform="matrix(0.08667043,0,0,0.08667043,54.837532,-43.975856)"
       style="display:inline">
      <path
         id="path990"
         style="fill:#000e44;fill-opacity:1;fill-rule:evenodd;stroke:none;stroke-width:3.14747"
         d="m 56.695351,510.77372 -107.53235,84.40183 -79.398391,-66.27467 61.189259,82.84335 -54.627399,74.39502 72.836531,-52.98696 102.528945,91.04567 -81.03891,-107.53235 z" />
    </g>
    <circle
       style="opacity:1;fill:#bcbcbc;fill-opacity:1;stroke:none;stroke-width:0.308165;stroke-miterlimit:2.5;stroke-opacity:1;stop-color:#000000"
       id="path912"
       cx="16.627409"
       cy="16.633268"
       r="16.433828" />
    <g
       fill="none"
       fill-rule="evenodd"
       transform="matrix(0.15069337,0,0,0.15069337,-6.1976669,-20.880758)"
       id="g1008">
      <g
         transform="matrix(0.92863152,0,0,-0.92863152,9.2718211,454.1644)"
         id="g1006">
        <g
           fill="#0f1689"
           mask="url(#a-1)"
           id="g1002"
           style="fill:#3e3e3e;fill-opacity:1"
           transform="matrix(0.94489362,0,0,0.94489362,8.6962507,2.7018401)">
          <path
             d="m 203.46068,95.687543 c 6.93631,0 12.5593,-14.80922 12.5593,-33.077318 0,-18.268097 -5.62299,-33.077317 -12.5593,-33.077317 -6.93631,0 -12.55931,14.80922 -12.55931,33.077317 0,18.268098 5.62299,33.077318 12.55931,33.077318 z"
             transform="rotate(35,137.93117,151.55002)"
             id="path996"
             style="fill:#3e3e3e;fill-opacity:1" />
          <path
             d="m 30.142322,95.687543 c 6.936311,0 12.559301,-14.80922 12.559301,-33.077318 0,-18.268097 -5.62299,-33.077317 -12.559301,-33.077317 -6.93631,0 -12.559301,14.80922 -12.559301,33.077317 0,18.268098 5.622991,33.077318 12.559301,33.077318 z"
             transform="matrix(-0.81915204,0.57357644,0.57357644,0.81915204,58.084611,47.704768)"
             id="path998"
             style="fill:#3e3e3e;fill-opacity:1" />
          <path
             d="m 116.73282,66.275268 c 6.93631,0 12.5593,-14.80922 12.5593,-33.077318 0,-18.268097 -5.62299,-33.07731673 -12.55931,-33.07731673 -6.93631,0 -12.5593,14.80921973 -12.5593,33.07731673 0,18.268098 5.62299,33.077318 12.55931,33.077318 z"
             transform="matrix(-1,0,0,1,272.62852,53.670762)"
             id="path1000"
             style="fill:#3e3e3e;fill-opacity:1" />
        </g>
        <path
           d="m 251.46701,173.09985 c -20.23008,-33.60997 -56.88957,-56.06791 -98.75578,-56.06791 -40.7208,0 -76.515877,21.2459 -97.058696,53.33459"
           mask="url(#a-1)"
           stroke="#0f1689"
           stroke-width="20"
           id="path1004"
           style="stroke:#3e3e3e;stroke-opacity:1"
           transform="matrix(0.94489362,0,0,0.94489362,8.6962507,2.7018401)" />
      </g>
    </g>
  </g>
  <g
     transform="matrix(0.95879878,0,0,0.95879878,-871.34292,-378.35028)"
     id="g893" />
  <g
     id="g1503"
     transform="matrix(0.91493385,0,0,0.91493385,1.3833352,1.2360624)"
     style="fill:#3e3e3e;fill-opacity:1">
    <path
       style="fill:#3e3e3e;fill-opacity:1;stroke:none;stroke-width:1px;stroke-linecap:butt;stroke-linejoin:miter;stroke-opacity:1"
       d="M 16.275404,5.1514082 5.1705813,10.114245 9.2069199,12.336457 5.1588819,14.470662 9.0944648,16.547853 5.440806,18.690176 16.208241,24.063004 27.162162,18.773062 23.172441,16.6179 27.197785,14.498361 23.29712,12.396633 27.197785,10.188037 Z"
       id="path1496" />
    <g
       id="Layer_2"
       data-name="Layer 2"
       transform="matrix(0.53316504,0,0,0.53316504,4.5279623,4.4004663)"
       style="fill:#3e3e3e;fill-opacity:1">
      <g
         id="Miscellaneous"
         style="fill:#3e3e3e;fill-opacity:1">
        <g
           id="Stack_1_2x.png"
           data-name="Stack 1@2x.png"
           style="fill:#3e3e3e;fill-opacity:1">
          <path
             class="cls-1"
             d="m 44,19 a 1,1 0 0 0 -0.57,-0.9 v 0 l -6.5,-3.1 6.5,-3.1 v 0 a 1,1 0 0 0 0,-1.79 v 0 l -21,-10 v 0 a 0.93,0.93 0 0 0 -0.85,0 v 0 l -21,10 v 0 a 1,1 0 0 0 0,1.79 v 0 l 6.49,3.1 -6.5,3.1 v 0 a 1,1 0 0 0 0,1.79 v 0 l 6.5,3.11 -6.5,3.1 v 0 a 1,1 0 0 0 0,1.79 v 0 l 21,10 v 0 a 0.93,0.93 0 0 0 0.85,0 v 0 l 21,-10 v 0 a 1,1 0 0 0 0,-1.79 v 0 l -6.49,-3.1 6.5,-3.1 v 0 A 1,1 0 0 0 44,19 Z M 3.33,11 22,2.11 40.67,11 22,19.89 Z M 40.67,27 22,35.89 3.33,27 9.4,24.11 21.57,29.9 v 0 a 0.93,0.93 0 0 0 0.85,0 v 0 L 34.6,24.11 Z M 22,27.89 3.33,19 9.4,16.11 21.57,21.9 v 0 a 0.93,0.93 0 0 0 0.85,0 v 0 L 34.6,16.11 40.67,19 Z"
             id="path18"
             style="fill:#3e3e3e;fill-opacity:1;stroke:none;stroke-opacity:1" />
        </g>
      </g>
    </g>
  </g>
</svg>

<?xml version="1.0" encoding="UTF-8"?>
<svg width="40" height="40" version="1.1" viewBox="0 0 40 40" xmlns="http://www.w3.org/2000/svg" xmlns:cc="http://creativecommons.org/ns#" xmlns:dc="http://purl.org/dc/elements/1.1/" xmlns:rdf="http://www.w3.org/1999/02/22-rdf-syntax-ns#"><metadata><rdf:RDF><cc:Work rdf:about=""><dc:format>image/svg+xml</dc:format><dc:type rdf:resource="http://purl.org/dc/dcmitype/StillImage"/><dc:title/></cc:Work></rdf:RDF></metadata><defs><mask id="c" fill="#ffffff"><path d="m0 0h313.3v159.86h-313.3z" fill="#fff" fill-rule="evenodd"/></mask></defs><mask id="a" fill="#ffffff"><path d="m0 0h313.3v159.86h-313.3z" fill="#fff" fill-rule="evenodd"/></mask><mask id="b" fill="#ffffff"><path d="m0 0h313.3v159.86h-313.3z" fill="#fff" fill-rule="evenodd"/></mask><g transform="matrix(.18989 0 0 .18989 50.031 3.5917)"><g transform="matrix(4.6315 0 0 4.6315 -663 -184.77)"><g transform="translate(96.564,87.836)" fill="#bcbcbc" stroke-width="3.24"><polygon class="st0" transform="matrix(.72255 0 0 .7031 -28.717 -125.97)" points="55.7 158 32.9 144.9 32.9 118.6 55.7 105.5 78.4 118.6 78.4 144.9" fill="#bcbcbc"/></g><g transform="matrix(.15831 0 0 .15831 83.649 18.463)" fill="#005e20" fill-rule="evenodd"><g transform="matrix(1.0777,0,0,-1.0777,-10.799,451.79)"><g transform="matrix(.94489 0 0 .94489 8.6963 2.7018)" fill="#3e3e3e" mask="url(#c)"><path transform="rotate(35,137.93,151.55)" d="m203.46 95.688c6.9363 0 12.559-14.809 12.559-33.077s-5.623-33.077-12.559-33.077-12.559 14.809-12.559 33.077 5.623 33.077 12.559 33.077z"/><path transform="matrix(-.81915 .57358 .57358 .81915 58.085 47.705)" d="m30.142 95.688c6.9363 0 12.559-14.809 12.559-33.077s-5.623-33.077-12.559-33.077c-6.9363 0-12.559 14.809-12.559 33.077s5.623 33.077 12.559 33.077z"/><path d="m153.24 119.95c-6.9363 0-12.559-14.809-12.559-33.077s5.623-33.077 12.559-33.077c6.9363 0 12.559 14.809 12.559 33.077s-5.623 33.077-12.559 33.077z"/></g><path transform="matrix(.94489 0 0 .94489 8.6963 2.7018)" d="m251.47 173.1c-20.23-33.61-56.89-56.068-98.756-56.068-40.721 0-76.516 21.246-97.059 53.335" fill="none" mask="url(#c)" stroke="#3e3e3e" stroke-width="19.999"/></g></g></g></g><g transform="matrix(.91493 0 0 .91493 3.9702 2.1263)" fill="#3e3e3e"><path d="m16.275 5.1514-11.105 4.9628 4.0363 2.2222-4.048 2.1342 3.9356 2.0772-3.6537 2.1423 10.767 5.3728 10.954-5.2899-3.9897-2.1552 4.0253-2.1195-3.9007-2.1017 3.9007-2.2086z"/><g transform="matrix(.53317 0 0 .53317 4.528 4.4005)" data-name="Layer 2"><g fill="#3e3e3e"><g fill="#3e3e3e" data-name="Stack 1@2x.png"><path class="cls-1" d="m44 19a1 1 0 0 0-0.57-0.9l-6.5-3.1 6.5-3.1a1 1 0 0 0 0-1.79l-21-10a0.93 0.93 0 0 0-0.85 0l-21 10a1 1 0 0 0 0 1.79l6.49 3.1-6.5 3.1a1 1 0 0 0 0 1.79l6.5 3.11-6.5 3.1a1 1 0 0 0 0 1.79l21 10a0.93 0.93 0 0 0 0.85 0l21-10a1 1 0 0 0 0-1.79l-6.49-3.1 6.5-3.1a1 1 0 0 0 0.57-0.9zm-40.67-8 18.67-8.89 18.67 8.89-18.67 8.89zm37.34 16-18.67 8.89-18.67-8.89 6.07-2.89 12.17 5.79a0.93 0.93 0 0 0 0.85 0l12.18-5.79zm-18.67 0.89-18.67-8.89 6.07-2.89 12.17 5.79a0.93 0.93 0 0 0 0.85 0l12.18-5.79 6.07 2.89z" fill="#3e3e3e"/></g></g></g></g></svg>
